source/assets/ui/themes/dark/close.svg

<?xml version="1.0" encoding="UTF-8"?>
<svg id="a" width="10" height="10" version="1.1" viewBox="0 0 10 10" xml:space="preserve" xmlns="http://www.w3.org/2000/svg" xmlns:cc="http://creativecommons.org/ns#" xmlns:dc="http://purl.org/dc/elements/1.1/" xmlns:rdf="http://www.w3.org/1999/02/22-rdf-syntax-ns#"><metadata><rdf:RDF><cc:Work rdf:about=""><dc:creator><cc:Agent><dc:title>NinStar</dc:title></cc:Agent></dc:creator></cc:Work></rdf:RDF></metadata><path d="m1 10 4-4 4 4h1v-1l-4-4 4-4v-1h-1l-4 4-4-4h-1v1l4 4-4 4v1z" fill="#b9bbbe" style="paint-order:markers stroke fill"/></svg>

<?xml version="1.0" encoding="UTF-8" standalone="no"?>
<!-- Created with Inkscape (http://www.inkscape.org/) -->

<svg
   width="10"
   height="10"
   viewBox="0 0 10 10"
   version="1.1"
   id="SVGRoot"
   xml:space="preserve"
   xmlns="http://www.w3.org/2000/svg"
   xmlns:svg="http://www.w3.org/2000/svg"
   xmlns:rdf="http://www.w3.org/1999/02/22-rdf-syntax-ns#"
   xmlns:cc="http://creativecommons.org/ns#"
   xmlns:dc="http://purl.org/dc/elements/1.1/"><defs
     id="defs1725" /><metadata
     id="metadata2103"><rdf:RDF><cc:Work
         rdf:about=""><dc:creator><cc:Agent><dc:title>NinStar</dc:title></cc:Agent></dc:creator></cc:Work></rdf:RDF></metadata><path
     style="fill:#b9bbbe;fill-opacity:1;stroke:none;stroke-width:1;stroke-linecap:butt;stroke-linejoin:miter;stroke-miterlimit:4;stroke-dasharray:none;stroke-dashoffset:9.6;paint-order:markers stroke fill"
     d="m 1,10 4,-4 3.9999999,4 h 1 V 9 L 6,5 V 5 L 9.9999999,1 V 0 h -1 L 5,4 1,0 H 0 V 1 L 4,5 0,9 v 1 z"
     id="path948-6-0-5-5" /></svg>
